src/images/feedback__arrow.svg

<svg width="106" height="144" viewBox="0 0 106 144" fill="none" xmlns="http://www.w3.org/2000/svg">
<path d="M27.4387 137.501C27.2204 138.584 27.9212 139.639 29.004 139.857L46.6489 143.415C47.7317 143.633 48.7864 142.932 49.0048 141.849C49.2231 140.767 48.5223 139.712 47.4395 139.494L31.7551 136.331L34.9174 120.647C35.1357 119.564 34.4349 118.509 33.3521 118.291C32.2694 118.073 31.2146 118.774 30.9963 119.856L27.4387 137.501ZM0.451831 3.96151C33.8084 13.4577 58.3789 22.481 74.9442 31.6715C91.5924 40.9079 99.6383 50.0256 100.979 59.4795C102.322 68.9432 97.0791 79.6663 84.6873 92.4679C72.3629 105.2 53.3834 119.56 28.2925 136.231L30.5061 139.562C55.6418 122.862 74.9224 108.307 87.5613 95.25C100.133 82.2626 106.557 70.3225 104.94 58.9178C103.321 47.5033 93.78 37.5472 76.8848 28.1738C59.9068 18.7543 34.9773 9.63153 1.54706 0.114373L0.451831 3.96151Z" fill="#1CA306"/>
</svg>

<svg width="106" height="144" fill="none" xmlns="http://www.w3.org/2000/svg"><path d="M27.439 137.501a2 2 0 0 0 1.565 2.356l17.645 3.558a2 2 0 0 0 .79-3.921l-15.684-3.163 3.162-15.684a2 2 0 1 0-3.92-.791l-3.558 17.645ZM.452 3.961c33.356 9.497 57.927 18.52 74.492 27.71 16.648 9.237 24.694 18.355 26.035 27.809 1.343 9.463-3.9 20.186-16.292 32.988C72.363 105.2 53.383 119.56 28.293 136.23l2.213 3.331c25.136-16.7 44.416-31.255 57.055-44.312 12.572-12.987 18.996-24.927 17.379-36.332-1.619-11.415-11.16-21.37-28.055-30.744C59.907 18.754 34.977 9.632 1.547.114L.452 3.962Z" fill="#1CA306"/></svg>
